public/assets/images/facebook.svg

<svg width="24" height="25" viewBox="0 0 24 25" fill="none" xmlns="http://www.w3.org/2000/svg">
<rect y="0.9375" width="24" height="24" rx="12" fill="#111827"/>
<path d="M16.5 4.9375H14.0455C12.9605 4.9375 11.9199 5.35893 11.1527 6.10907C10.3856 6.85922 9.95455 7.87663 9.95455 8.9375V11.3375H7.5V14.5375H9.95455V20.9375H13.2273V14.5375H15.6818L16.5 11.3375H13.2273V8.9375C13.2273 8.72533 13.3135 8.52184 13.4669 8.37181C13.6204 8.22179 13.8285 8.1375 14.0455 8.1375H16.5V4.9375Z" fill="white"/>
</svg>

<svg xmlns="http://www.w3.org/2000/svg" width="24" height="25" fill="none"><rect width="24" height="24" y=".938" fill="#111827" rx="12"/><path fill="#fff" d="M16.5 4.938h-2.454a4.139 4.139 0 0 0-2.893 1.171 3.956 3.956 0 0 0-1.198 2.829v2.4H7.5v3.2h2.455v6.4h3.272v-6.4h2.455l.818-3.2h-3.273v-2.4c0-.213.086-.416.24-.566a.828.828 0 0 1 .579-.235H16.5v-3.2Z"/></svg>
